X:1
T:James Gibb editions
T:Salvum fac populum tuum - Bruckner
T:#
%%score [ 1 2 3 4 ]
L:1/8
Q:1/4=120
M:none
K:F
V:1 treble nm="Soprano" snm="S"
V:2 treble nm="Alto" snm="A"
V:3 treble-8 nm="Tenor" snm="T"
V:4 bass nm="Bass" snm="B"
V:1
"^Salvum fac populum tuum""^Anton Bruckner\n(1824-1896)" x8 x8 x8 x8 x2 | B2 B2 B2 B2 B2 B2 B2 || %2
w: |et be- ne- dìc he- re- di\-|
[M:2/2]!f! B8 | d8 |[M:2/2] (d4 c2 =B2 | c8) | =B4 z4 | x8 x4 ||[M:2/2] z8 | z2!f! GG A2 =B2 | %10
w: ta-|ti|tu\- * *||ae:|||et ex- tol- le|
 c6 =B2 | A2 A2 G2 e2 |"^dim." (e4 d2 ^c2 | d8) | ^c4 z4 || x8 x8 x8 x8 x8 x2 | %16
w: il- los|us- que in ae-|ter\- * *||num||
 B2 B2 B2 B2 B2 B2 B2 B2 B2 B2 B2 B4 ||[M:2/2]!f! B4 B4 | d3 d d4 |"^dim." (d4 c2 =B2 | c4) c4 | %21
w: Et lau- da- mus no- men tu- um in sae- cu- lum,|et in|sae- cu- lum|sae\- * *|* cu-|
 =B4 z4 || z8 z6 ||[M:2/2] z8 | z2!f! (G2 A2) =B2 | c6 =B2 | A2 AA G2 ee | %27
w: li.|||di\- * e|i- sto|si- ne pec- ca- to nos|
[M:2/2]"^dim." (e4 d2) ^c2 | d8 | ^c4 z4 ||!p! c2 c2 c2 c2 c2 c2 c2 c2 c4 ||[M:2/2] z4!pp! c2 c2 | %32
w: cu\- * sto-|di-|re|Mi- se- re- re no- stri Do- mi- ne,|mi- se-|
 c4 =B4 | A8- | A8 | =B4 z4 ||!mf! d2 d2 d2 d2 d2 d2 d2 d2 d2 d4 ||[M:2/2]!f! g6 g2 | f8 | %39
w: re- re|no\-||stri.|Fi- at mi- se- ri- cor- di- a tu- a|Do- mi-|ne|
"^dim." _e8- | e4 f4 | d8- | d2 z2 z4 | z8 | z2!f! (G2 A2 =B2) | c7/2 c/ =B2 B2 | A3 A G2 G2 | %47
w: su\-|* per|nos.|||quem * *|ad- mo- dum spe-|ra- vi- mus, spe\-|
!pp! (F8 | _E4 c4- | c4 B2) A2 | B4 B4 | G8 |] %52
w: ra\-||* * vi-|mus in|te.|
V:2
 x8 x8 x8 x8 x2 | G2 G2 G2 G2 G2 G2 G2 ||[M:2/2]!f! F8 | F8 |[M:2/2] _E8- | E8 | D4 z4 | x8 x4 || %8
w: |et be- ne- dic he- re- di\-|ta-|ti|tu\-||ae:||
[M:2/2] z8 | z8 | z2!f! EE A2 G2 | G2 F2 GGGG |"^dim." F8- | F8 | E4 z4 || %15
w: ||et ex- tol- le|il- los us- que in ae-|ter\-||num|
 x8 x4 x4 x4 x4 x4 x4 x8 x2 | G2 G2 G2 G2 G2 G2 G2 G2 G2 G2 G2 G4 ||[M:2/2]!f! F4 F4 | F3 F F4 | %19
w: |Et lau- da- mus no- men tu- um in sae- cu- lum,|et in|sae- cu- lum|
"^dim." _E8- | E4 _E4 | D4 z4 || z8 z6 ||[M:2/2] z8 | z8 | z2!f! EE A2 G2 | G2 FF G2 GG | %27
w: sae\-|* cu-|li.||||di- e i- sto|si- ne pec- ca- to nos|
[M:2/2]"^dim." F6 F2 | F8 | E4 z4 ||!p! F2 F2 F2 F2 F2 F2 F2 F2 E4 ||[M:2/2] z4!pp! _E2 E2 | %32
w: cu- sto-|di-|re|Mi- se- re- re no- stri Do- mi- ne,|mi- se-|
 D4 D4 | D8- | D8 | D4 z4 ||!mf! G2 G2 G2 G2 G2 G2 G2 G2 G2 G4 ||[M:2/2]!f! B6 B2 | B8 | %39
w: re- re|no\-||stri.|Fi- at mi- se- ri- cor- di- a tu- a|Do- mi-|ne|
"^dim." G8- | G4 _A4 | G8- | G2 z2 z4 | z8 | z8 | z2!f! A2 A>AGG | (G2 F2- F)F E2 | z4!pp! _D4 | %48
w: su\-|* per|nos.||||quem ad- mo- dum spe-|ra\- * * vi- mus,|spe-|
 (_D4 C4 | _D6) D2 | _D4 D4 | C8 |] %52
w: ra\- *|* vi-|mus in|te.|
V:3
 A2 (G2 F2) (G2 A2) A2 D2 D2 D2 C2 (F2 G2 A2 B2) A2 A4 | d2 d2 d2 d2 d2 _e2 e2 ||[M:2/2]!f! d8 | %3
w: Sal- vum * fac * po- pu- lum tu- um, Do\- * * * mi- ne,|et be- ne- dic he- re- di\-|ta-|
 B8 |[M:2/2][K:treble-8] G8- | G8 | G4 z4 | G2 G2 G2 G2 C4 ||[M:2/2] z8 | z2!f! ee e2 d2 | c4 e4 | %11
w: ti|tu\-||ae:|Et re- ge e- os||et ex- tol- le|il- los|
 c2 f2 f2 e2 |"^dim." A8- | A8 | A4 z4 || %15
w: us- que in ae-|ter\-||num|
 A2 (G2 F2 G2 A2) A2 A2 A2 D4 D2 C2 (F2 G2 A2 B2) B2 A2 (G2 A4) | %16
w: Per sin\- * * * gu- los di- es, be- ne- di\- * * * ci- mus te. *|
 d2 d2 d2 d2 d2 d2 d2 d2 d2 _e2 e2 e4 ||[M:2/2]!f! d4 d4 | B3 B B4 |"^dim." G8- | G4 G4 | G4 z4 || %22
w: Et lau- da- mus no- men tu- um in sae- cu- lum,|et in|sae- cu- lum|sae\-|* cu-|li.|
 G2 G2 G2 G2 C2 C4 ||[M:2/2] z8 | z2!f! e4 d2 | c4 e4 | c2 cf f2 ee | %27
w: Di- gna- re Do- mi- ne||di- e|i- sto|si- ne pec- ca- to nos|
[M:2/2][K:treble-8]"^dim." A6 A2 | A8 | A4 z4 ||!p! A2 A2 A2 A2 A2 A2 G2 G2 G4 || %31
w: cu- sto-|di-|re|Mi- se- re- re no- stri Do- mi- ne,|
[M:2/2] z4!pp! G2 A2 | ^F4 G4 | (G4 ^F2 E2 | ^F8) | G4 z4 ||!mf! =B2 B2 B2 B2 B2 B2 B2 B2 B2 B4 || %37
w: mi- se-|re- re|no\- * *||stri.|Fi- at mi- se- ri- cor- di- a tu- a|
[M:2/2]!f! _e6 e2 | d8 |"^dim." (d4 c2 =B2 | c4) c4 | =B8- | B2 z2 z4 | z8 | z2!f! (e4 d2) | %45
w: Do- mi-|ne|su\- * *|* per|nos.|||quem *|
 e7/2 e/ e2 e2 | c3 c c2 c2 |!pp! (_A8- | A4 _E2 _G2 | F6) F2 | F4 F4 | E8 |] %52
w: ad- mo- dum spe-|ra- vi- mus, spe\-|ra\-||* vi-|mus in|te.|
V:4
 x8 x8 x8 x8 x2 | G,2 G,2 G,2 G,2 G,2 _E,2 E,2 ||[M:2/2]!f! B,,8 | B,,8 |[M:2/2] C,8- | C,8 | %6
w: |et be- ne- dic he- re- di\-|ta-|ti|tu\-||
 G,,4 z4 | x8 x4 ||[M:2/2] z2!f! G,G, A,2 =B,2 | C6 =B,2 | A,4 E,4 | F,4 C,4 |"^dim." D,8- | D,8 | %14
w: ae:||et ex- tol- le|il- los|us- que|in ae-|ter\-||
 A,,4 z4 || x8 x4 x4 x4 x4 x4 x4 x8 x2 | G,2 G,2 G,2 G,2 G,2 G,2 G,2 G,2 G,2 _E,2 E,2 E,4 || %17
w: num||Et lau- da- mus no- men tu- um in sae- cu- lum,|
[M:2/2]!f! B,,4 B,,4 | B,,3 B,, B,,4 |"^dim." C,8- | C,4 C,4 | G,,4 z4 || z8 z6 || %23
w: et in|sae- cu- lum|sae\-|* cu-|li.||
[M:2/2] z2!f! (G,2 A,2) =B,2 | C6 =B,2 | A,4 E,2 E,2 | F,4 C,2 C,2 |[M:2/2]"^dim." D,6 D,2 | D,8 | %29
w: di\- * e|i- sto|si- ne pec-|ca- to nos|cu- sto-|di-|
 A,,4 z4 ||!p! F,2 F,2 F,2 F,2 F,2 F,2 C,2 C,2 C,4 ||[M:2/2] z4!pp! C,2 C,2 | D,4 G,,4 | D,8- | %34
w: re|Mi- se- re- re no- stri Do- mi- ne,|mi- se-|re- re|no\-|
 D,8 | G,,4 z4 ||!mf! G,2 G,2 G,2 G,2 G,2 G,2 G,2 G,2 G,2 G,4 ||[M:2/2]!f! _E,6 E,2 | B,,8 | %39
w: |stri.|Fi- at mi- se- ri- cor- di- a tu- a|Do- mi-|ne|
"^dim." C,8- | C,4 F,,4 | G,,8- | G,,2 z2 z4 | z2!f! (G,2 A,2 =B,2) | C7/2 C/ C2 =B,2 | (A,4 E,4 | %46
w: su\-|* per|nos.||quem * *|ad- mo- dum spe-|ra\- *|
 F,4 C,4 |!pp! _D,8 | _A,,8 | B,,6) B,,2 | B,,4 B,,4 | C,8 |] %52
w: |||* vi-|mus, in|te.|

